X:148
T:Kilfenora Jig (3)
S:Girvan Festival
Z:robin.beech@mcgill.ca
R:jig
M:6/8
L:1/8
K:D
|: A2D FED | A2D FED | A2D FED | d ce dcB |
A2D FED | A2D FED | EDE =cAF | G3-G3 ::
F2d dcd | A3 BAG | F2d dcd | A3BAG |
F2d dcd | A3 FED | EDE =cAF | G3- G3 ::
f2d dcd | f2d dcd | f2d dcd | a2a bag |
f2d dcd | f2d dcd | fed cde | g3 a2g ::
fed faf | gbg faf | fed faf | a3 bag |
fed faf | gbg faf |fed cde | g3a2g ::
fed edc | d3 AFE | DFA dAF | ABA AB=c |
B3 =c3  | B3 AFD | EFE =cAF | G3- G2g :|
